X:30
T:Hela'r Sgyfarnog [Hunting the Hare]
R:ymdaith or march
C:traditional welsh
S:Sian Phillips, Ceri Matthews, Jonathan Shorland
H:ymdaith or a march (joyful - not military)
H:a tune that bob evans did play like god ...
H:did he get it from iolo jones or the kilbrides?
N:see Hunting the Hare in Desert 1 Welsh file. This entry contains
variations,
N:including "a nice pibgorn bagpipey variation thing that is cod jonathan
shorland"
D:Sian Phillips
Z:Lesl, Ceri
M:C|
L:1/8
Q:1/2=70
K:D
D>F Ad cABG|FDFD E~E2z|D>F Ad cABG|FDFA dA~A2||
D>F Ad cABG|FDFA E~E2z|D>F Ad cABG|FDFA d2d2||
f>g af gefd|efge aecA|f>g (3agf gefd|ceA B/c/ d2d2|
f>g af gefd|e e/f/ ge aecA|f>g (3agf gefd|ceA B/c/ d2d2||
"variations for second part:"
f/e/f/g/ af gefd|e e/f/ ge ae a/b/a/g/|
f f/g/ af gefd|e/f/ g f/g/f/e/ d2||
